!!!OTL: 158. Ritter Willibald.
!!!ARE: Europa, Mitteleuropa, Deutschland, Westerwald, Hardeck
!!!SCT: B0158
!!!TXL: @@DE
!!!YEM: Copyright 1995, estate of Helmut Schaffrath.
**kern	**text
*ICvox	*
*Ivox	*
*M4/4	*
*met(c)	*
*clefG2	*
*k[]	*
*C:	*
!LO:TX:a:t=Gemeſſen.	!
{(8c	Eine
8e)	.
=1	=1
4g	al-
4g	-te
4g	Burg
4g	mit
=2	=2
(4g	Mau-
8cc)	.
8g	-ern
4e}	ſeſt
{8cc	hier
8cc	in
=3	=3
4.dd	die-
8dd	-ſem
4.b	grü-
8b	-nen
=4	=4
2cc	Wald,
4r}	.
{(8c	das
8e)	.
=5	=5
4g	war
4g	ein
4g	al-
4g	-tes
=6	=6
(4g	Räu-
8cc)	.
8g	-ber-
4e}	-neſt,
{8cc	da-
8cc	.
=7	=7
4.dd	-rin
8dd	hauſt
4.b	Wil-
8b	-li-
=8	=8
2cc	-bald.
4r}	.
{4g	Er
=9	=9
4.f	ging
8e	des
8dL	Nachts
8eJ	.
8fL	ſo
8aJ	.
=10	=10
4.g	ganʒ
8f	al-
4.e}	-lein
{8e	bei
=11	=11
4.f	eim
8e	ſo
8dL	hel-
8eJ	.
8fL	-len
8gJ	.
=12	=12
4.g	Mon-
8f	-denſchein;
4e}	.
{8cL	er
8eJ	.
=13	=13
4g	ging
4g	des
4g	Nachts
4g	ſo
=14	=14
4g	ganʒ
4cc	al-
4.ee}	-lein
{8ee	bei
=15	=15
4.dd	eim
8dd	ſo
4.b	hel-
8b	-len
=16	=16
4.cc	Mon-
8cc	-denſchein.
4cc}	.
==	==
!!!AGN: Ballade, Romanze
!!!GTL: Balladen und Romanzen
!!!ONB: ESAC (Essen Associative Code) Database: BOEHME
!!!AMT: simple quadruple
!!!AIN: vox
!!!EED: Helmut Schaffrath
!!!EEV: 1.0
!!Aus Hardeck (Weſterwald) 1881 und aus Warlaube bei St. Goar 1894.
!!@@COMMENT:"Ahnlicher Text ohne Melodie ſ. Liederh. J, Nr. 44. - Das iſt jedenfalls ein Lied von
!!Drehorgelmännern" ʒu Jahrmärkten und Meſſen geſungen und als fl. Bl. verkauft! Bei dem hin-
!!weiſenden Wort "bier in dieſem großen Wald", - ſehen wir, wie der Bänkelſänger mit dem
!!Stabe auf das aufgehangene Bildniß der Räubergeſchichte auf Wachstuch hindeutet."
!!@@END:
!!!URL-scan: https://archive.org/details/BoehmeVtLieder1895/page/n155/mode/2up
!!!ENC: Anna Maria Matuszewska
!!!EEV: 2024/19/06
*-	*-
